X:97
T:Retreat at Widows Peak
M:6/8
L:1/8
C:© Paul Gitlitz 1999 revised March 2017
R:Double Jig
B:Giblitz Fancy
N:Subtittled "Follicles in Free Fall". The endless march of the hair away from the front.
K:D
A|:"D"d2d "A"c2c|"C"=c2c "G"B2B|"D"ABA FAd|"A7"e3e2A|!
"D"d2d "A/C#"c2c|"C"=c2c "G/B"B2B|"A7"efe  afe|"D"d3-d2A:|!
K:G
"G"G2g edB|"Bb"_B2=B "G"G2D|G2g edB|"D"A3-A2D|!
"G"G2g edB|"Bb"_B2=B "G"G2B|"Am"ABA "D"DEF|"G"~G3-G2D|!
"G"G2g edB|"Bb"_B2=B "G"G2D|G2g edB|"D"A3-A2D|!
"Am"agf "C"gfe|"D"fed "C"edB|"Am"ABA "D"dBA|"G"G6|]
